!!!OTL: 973. Jn die Buchnuesse gehen.
!!!ARE: Europa, Mitteleuropa, Deutschland, Boehmen
!!!SCT: K0973
!!!TXL: @@GSW
!!!YEM: Copyright 1995, estate of Helmut Schaffrath.
**kern	**text
*clefG2	*
*M3/4	*
*k[f#]	*
*G:	*
=1	=1
{4b	Tuarl
4b	haut
4b	g'ſagt.
=2	=2
4b	Tuarl
4b	haut
4b}	g'ſagt,
=3	=3
{[8dd	Boi-
8dd]	-cha-
4cc	-la
4b	ſan
=4	=4
2a	gout.
4r}	.
=5	=5
{[8cc	Boi-
8cc]	-cha-
4b	-la
4a	ſan
=6	=6
2g	gout,
4r}	.
=7	=7
{4b	Klaub
4b	ma's
4b	ʒ'ſamm,
=8	=8
4b	klaub
4b	ma's
4b}	ʒ'ſamm,
=9	=9
{[8dd	thou
8dd]	.
4cc	ma's
4b	in
=10	=10
2a	Hout;
4r}	.
=11	=11
{[8cc	thou
8cc]	.
4b	ma's
4a	in
=12	=12
2g	Hout.
4r}	.
==	==
!!!AGN: Kinder - Lied, Pflanzen
!!!ONB: ESAC (Essen Associative Code) Database: KINDER
!!!AMT: simple triple
!!!AIN: vox
!!!EED: Helmut Schaffrath
!!!EEV: 1.0
!!!GTL: VI. Das Kind im Verkehr mit der Natur. B. Verkehr mit der Pflanzenwelt.
!!Boehmisches Tanzliedchen: Hruschka 1492.
!!@@COMMENT:"Tuarl=Dorothea. Boichala = Bucheckern, Buchnüſſe. Klaubma's=klauben (leſen) wir ſie ʒuſammen."
!!@@END:
!!!URL-scan: https://archive.org/details/DeutschesKinderliedUndKinderspiel/page/197/mode/1up
!!!ENC: Anna Maria Matuszewska
!!!EEV: 2024/30/08
*-	*-
